X:15907
%11257
T:Mountain Road, The
C:Michael Gorman (1895-1970)
S:Madison WI sessions
N:transcribed by Alan Ng
Z:composer according to http://home1.swipnet.se/~w-11382/hnr0.abc #79
Z:id:ng-reels-14 transcribed by Alan Ng agng@students.wisc.edu Feb. 7, 1997
E:13
M:C|
K:Cmaj
\bigskip
E2GE AEGE|~E2GE DECD|1 E2GE AEGE|F2EF DCA,C:|2 EG~G2 AGEA|GAcd ec c2\
|:~c3A GCEG|~c3d efed|~c3A GECE|F2EF DCA,C:|**
\bigskip


